!!!OTL: Wo wang shang hu huo zhao li
!!!ARE: Asia, China,ˇGansu, Lixian
!! I,
!!!SCT: C1413
!!!YEM: Copyright 1995, estate of Helmut Schaffrath.
**kern
*ICvox
*Ivox
*M2/4
*k[b-]
*F:
{4cc
4dd
=1
4dd
4dd
=2
16dd
16cc
8a
8.cc
16a
=3
16g
16f
8d
4r}
=4
{4cc
4cc
=5
4cc
16a
16g
8f
=6
4a
16g
16f
8d
=7
2d
=8
4d
4r}
=9
{4cc
4dd
=10
4dd
4dd
=11
8.dd
16cc
8.cc
16a
=12
16g
16f
8d
4r}
=13
{4cc
8cc
8cc
=14
16a
16g
8f
16a
16g
8f
=15
4a
16g
16f
8d
=16
2d
=17
4d
4r}
=18
{4cc
4dd
=19
4dd
4dd
=20
4dd
8cc
8a
=21
16g
16f
8d
4r}
=22
{4cc
4cc
=23
4cc
16a
16g
8f
=24
4a
16g
16f
8d
=25
2d
=26
4d
4r}
=27
{4a
8.cc
16a
=28
16g
16f
4.d}
=29
{4cc
4cc
=30
4cc
16a
16g
8f
=31
4a
16g
16f
8d
=32
2d
=33
4d
4r}
==
!!!AGN: Shange. Changgong ma caizhu
!!!ONB: ESAC (Essen Associative Code) Database: HUANG
!!!AMT: simple duple
!!!AIN: vox
!!!EED: Helmut Schaffrath
!!!EEV: 1.0
*-
!!!OTL: Liuliu ge
!!!ARE: Asia, China,ˇHunan, Dongan
!! I, 562(1)
!!!SCT: C1476
!!!YEM: Copyright 1995, estate of Helmut Schaffrath.
**kern
*ICvox
*Ivox
*M2/4
*k[f#c#]
*D:
{8dd
16f#
16a
8b
16b
16a
=1
8f#
8dd
4b
=2
8a
16a
16b
8ee
16ee
16cc#
=3
2b}
=4
{16f#
16a
16f#
16a
8b
16b
16a
=5
8dd
8f#
4e
=6
8d
16d
16e
8a
16a
16f#
=7
2e}
==
!!!AGN: Shange. NannÅ qing
!!!ONB: ESAC (Essen Associative Code) Database: HUANG
!!!AMT: simple duple
!!!AIN: vox
!!!EED: Helmut Schaffrath
!!!EEV: 1.0
*-
